common.blocks/social-icon/_clear/social-icon_clear_vk-inverse.svg

<svg xmlns="http://www.w3.org/2000/svg" width="24" height="24" viewBox="0 0 24 24" xmlns:xlink="http://www.w3.org/1999/xlink">
  <defs>
    <path id="a" d="M8.6758485,8.20555888 C8.87481512,8.23055992 9.32483387,8.32327212 9.56338547,8.64307711 C9.87173165,9.05455258 9.86131455,9.97854941 9.86131455,9.97854941 C9.86131455,9.97854941 10.0384053,12.5244888 9.44671394,12.840127 C9.04253044,13.0578444 8.48729897,12.6151176 7.29141582,10.5889915 C6.67993201,9.55248999 6.21949616,8.40556721 6.21949616,8.40556721 C6.21949616,8.40556721 6.1299091,8.19201665 5.97052746,8.07638683 C5.7778111,7.93783939 5.50800819,7.89512928 5.50800819,7.89512928 L2.65163919,7.91283835 C2.65163919,7.91283835 2.22141293,7.92533887 2.06515643,8.10763813 C1.92556728,8.27014491 2.05369761,8.60765897 2.05369761,8.60765897 C2.05369761,8.60765897 4.29024912,13.745373 6.82472971,16.3350642 C9.14774316,18.7091215 11.785353,18.552865 11.785353,18.552865 L12.9801945,18.552865 C12.9801945,18.552865 13.3416679,18.5143217 13.5260506,18.3184802 C13.6958493,18.1403478 13.689599,17.8028337 13.689599,17.8028337 C13.689599,17.8028337 13.6677231,16.2298515 14.4125458,15.9975502 C15.1459097,15.768374 16.0876156,17.5184469 17.0876573,18.1924333 C17.8428971,18.7007878 18.4158376,18.5893248 18.4158376,18.5893248 L21.0878239,18.552865 C21.0878239,18.552865 22.4847571,18.4684864 21.8211878,17.3903165 C21.7670189,17.3017712 21.4357551,16.5923666 19.8356884,15.1350142 C18.1606186,13.6078673 18.385628,13.8557943 20.4023787,11.216101 C21.6315966,9.60874234 22.122242,8.62745146 21.9691106,8.2076423 C21.8232712,7.80554222 20.9190669,7.91283835 20.9190669,7.91283835 L17.9116499,7.93158913 C17.9116499,7.93158913 17.688724,7.90137954 17.5241338,7.99825858 C17.3626687,8.0940959 17.257456,8.31493844 17.257456,8.31493844 C17.257456,8.31493844 16.7824362,9.55874026 16.1469931,10.6171177 C14.8073539,12.8484606 14.2729567,12.9672156 14.0541976,12.8286681 C13.5437596,12.5046963 13.67189,11.5296557 13.67189,10.8379602 C13.67189,8.67432841 14.0062789,7.77220749 13.0208212,7.53990615 C12.6937242,7.46177789 12.4541309,7.41177581 11.6176377,7.40240042 C11.47284,7.40135871 11.3311675,7.400317 11.1936617,7.400317 C10.3071665,7.400317 9.5665106,7.43886027 9.1217004,7.65241084 C8.7800195,7.81700103 8.51542515,8.18368297 8.6758485,8.20555888 Z"/>
  </defs>
  <g fill="none" fill-rule="evenodd">
    <use fill="#FFFFFF" xlink:href="#a"/>
  </g>
</svg>

<svg xmlns="http://www.w3.org/2000/svg" width="24" height="24" xmlns:xlink="http://www.w3.org/1999/xlink"><defs><path id="a" d="M8.676 8.206c.199.025.649.117.887.437.309.412.298 1.336.298 1.336s.177 2.545-.414 2.861c-.404.218-.96-.225-2.156-2.251C6.68 9.552 6.22 8.406 6.22 8.406s-.09-.214-.248-.33a1.247 1.247 0 0 0-.463-.18l-2.856.017s-.43.012-.587.195c-.14.162-.011.5-.011.5s2.236 5.137 4.77 7.727c2.324 2.374 4.961 2.218 4.961 2.218h1.195s.362-.039.546-.235c.17-.178.164-.515.164-.515s-.022-1.573.723-1.805c.733-.23 1.675 1.52 2.675 2.194.755.509 1.328.397 1.328.397l2.672-.036s1.397-.085.733-1.163c-.054-.088-.385-.798-1.985-2.255-1.675-1.527-1.45-1.28.566-3.919 1.23-1.607 1.72-2.589 1.567-3.008-.146-.402-1.05-.295-1.05-.295l-3.007.019s-.223-.03-.388.066c-.161.096-.267.317-.267.317s-.475 1.244-1.11 2.302c-1.34 2.231-1.874 2.35-2.093 2.212-.51-.324-.382-1.3-.382-1.991 0-2.164.334-3.066-.651-3.298-.327-.078-.567-.128-1.403-.138l-.424-.002c-.887 0-1.627.039-2.072.252-.342.165-.607.532-.446.554z"/></defs><use fill="#FFF" xlink:href="#a" fill-rule="evenodd"/></svg>
